static/assets/images/icons/astrolab-thick.svg

<svg width="256" height="256" viewBox="0 0 256 256" fill="none" xmlns="http://www.w3.org/2000/svg">
<path fill-rule="evenodd" clip-rule="evenodd" d="M51.8736 131.719C36.4736 140.61 31.7892 161.327 41.4107 177.992L112.157 137.147C121.779 153.812 142.063 160.114 157.463 151.223L204.124 124.283C219.524 115.391 224.208 94.6741 214.587 78.0091L143.84 118.855C134.219 102.19 113.935 95.8877 98.5347 104.779L51.8736 131.719Z" fill="black"/>
<path fill-rule="evenodd" clip-rule="evenodd" d="M177.992 214.588C212.68 194.561 230.828 156.886 227.641 119.451L196.055 137.687C193.17 157.859 181.385 176.551 162.369 187.529C131.709 205.231 93.0803 196.628 72.6152 168.723L45.4439 184.41C74.6369 227.231 132.377 240.924 177.992 214.588ZM93.6308 68.4707C124.291 50.769 162.92 59.372 183.385 87.2773L210.556 71.59C181.363 28.7685 123.623 15.0764 78.0084 41.4119C43.3198 61.4393 25.1724 99.1142 28.359 136.549L59.9445 118.313C62.8298 98.1413 74.6153 79.4493 93.6308 68.4707Z" fill="black"/>
</svg>

<svg xmlns="http://www.w3.org/2000/svg" fill="none" viewBox="0 0 256 256"><path fill="#000" fill-rule="evenodd" d="M51.874 131.719c-15.4 8.891-20.085 29.608-10.463 46.273l70.746-40.845c9.622 16.665 29.906 22.967 45.306 14.076l46.661-26.94c15.4-8.892 20.084-29.609 10.463-46.274l-70.747 40.846c-9.621-16.665-29.905-22.967-45.305-14.076z" clip-rule="evenodd"/><path fill="#000" fill-rule="evenodd" d="M177.992 214.588c34.688-20.027 52.836-57.702 49.649-95.137l-31.586 18.236c-2.885 20.172-14.67 38.864-33.686 49.842-30.66 17.702-69.289 9.099-89.754-18.806L45.444 184.41c29.193 42.821 86.933 56.514 132.548 30.178M93.631 68.471c30.66-17.702 69.289-9.099 89.754 18.806l27.171-15.687c-29.193-42.821-86.933-56.514-132.548-30.178C43.32 61.439 25.172 99.114 28.36 136.549l31.585-18.236c2.886-20.172 14.671-38.864 33.687-49.842" clip-rule="evenodd"/></svg>
